X:73
T:Mayfly On Your Bonnet
M:C|
C:© Paul Gitlitz 2006
R:Oldtimey Reel
B:Anna's Smile
N:Written on a fishing holiday with my wife Karen.
K:D
(3efg|"A"age<c "D"d2 A2| "A"age<c "D"d2 (3efg|"A"age<c "D"d2 A2|1"G"Bdc<B "A"A2:|2"G"Bd "A"c<BA4|!
|:"G"GAB2 GAB2|Bdc<B "D"A4|"G"GAB2 GAB2|"A"edc<B "D"A4:|!
|:"G"[G2B2]BG AB2G|[G2B2]BG AG2A|[G2B2]BG AB2G|"Em"EDEG "D"D4:|]
